images/modal icons/Property 1=Default.svg

<svg width="16" height="16" viewBox="0 0 16 16" fill="none" xmlns="http://www.w3.org/2000/svg">
<path d="M11.4607 4.48931C11.6251 4.34489 11.8438 4.26504 12.0707 4.26662C12.2976 4.26821 12.515 4.3511 12.6769 4.49781C12.8389 4.64451 12.9328 4.84356 12.9388 5.05295C12.9448 5.26233 12.8624 5.46568 12.7091 5.62008L8.05408 10.9939C7.97404 11.0735 7.87743 11.1374 7.77004 11.1817C7.66264 11.226 7.54667 11.2499 7.42904 11.2519C7.31142 11.2539 7.19456 11.234 7.08546 11.1934C6.97637 11.1528 6.87726 11.0923 6.79408 11.0155L3.70708 8.16593C3.62111 8.09198 3.55216 8.00281 3.50434 7.90374C3.45651 7.80466 3.4308 7.69771 3.42873 7.58926C3.42665 7.48081 3.44826 7.37309 3.49227 7.27252C3.53628 7.17194 3.60178 7.08058 3.68487 7.00389C3.76796 6.92719 3.86693 6.86673 3.97588 6.8261C4.08484 6.78548 4.20154 6.76553 4.31903 6.76744C4.43651 6.76936 4.55238 6.7931 4.65971 6.83724C4.76704 6.88139 4.86364 6.94503 4.94375 7.02439L7.38675 9.27839L11.4386 4.51301C11.4459 4.50471 11.4537 4.4968 11.4619 4.48931H11.4607Z" fill="#F4F4FD"/>
<rect x="0.625" y="0.625" width="14.75" height="14.75" rx="1.375" stroke="#2E2F42" stroke-width="1.25"/>
</svg>

<svg xmlns="http://www.w3.org/2000/svg" width="16" height="16" fill="none"><path fill="#F4F4FD" d="M11.46 4.49a.916.916 0 0 1 .61-.223.913.913 0 0 1 .607.23.78.78 0 0 1 .262.556.773.773 0 0 1-.23.567l-4.655 5.374a.876.876 0 0 1-.284.188.937.937 0 0 1-.976-.167l-3.087-2.85a.812.812 0 0 1-.203-.261.756.756 0 0 1 .18-.9.884.884 0 0 1 .292-.178.94.94 0 0 1 .684.011.877.877 0 0 1 .284.187l2.443 2.254 4.052-4.765a.305.305 0 0 1 .023-.024h-.001Z"/><rect width="14.75" height="14.75" x=".625" y=".625" stroke="#2E2F42" stroke-width="1.25" rx="1.375"/></svg>
